app/dist/images/icons/quotes-start.svg

<svg width="33" height="24" viewBox="0 0 33 24" fill="none" xmlns="http://www.w3.org/2000/svg">
<path d="M13.8659 0.425537C7.53862 2.08036 0.724609 6.4608 0.724609 13.6642C0.724609 20.0888 5.88379 23.8852 10.1669 23.8852H10.2642C12.1137 23.8852 14.742 22.5224 14.742 19.9915C14.742 18.5313 13.9633 17.8499 13.3792 17.7526C9.97219 17.1685 7.14925 14.9296 7.14925 11.4253C7.14925 7.53158 10.0695 5.19534 14.9367 3.0538L13.8659 0.425537ZM31.3877 0.425537C25.0604 2.08036 18.2463 6.4608 18.2463 13.6642C18.2463 20.0888 23.5029 23.8852 27.786 23.8852H27.8833C29.7328 23.8852 32.2637 22.5224 32.2637 19.9915C32.2637 18.5313 31.5823 17.8499 30.9983 17.7526C27.4939 17.1685 24.671 14.9296 24.671 11.4253C24.671 7.53158 27.5913 5.19534 32.4584 3.0538L31.3877 0.425537Z" fill="white"/>
</svg>

<svg width="33" height="24" fill="none" xmlns="http://www.w3.org/2000/svg"><path d="M13.866.426C7.539 2.08.725 6.46.725 13.664c0 6.425 5.159 10.221 9.442 10.221h.097c1.85 0 4.478-1.363 4.478-3.894 0-1.46-.779-2.141-1.363-2.238-3.407-.584-6.23-2.823-6.23-6.328 0-3.893 2.92-6.23 7.788-8.371L13.866.426zm17.522 0C25.06 2.08 18.246 6.46 18.246 13.664c0 6.425 5.257 10.221 9.54 10.221h.097c1.85 0 4.38-1.363 4.38-3.894 0-1.46-.68-2.141-1.265-2.238-3.504-.584-6.327-2.823-6.327-6.328 0-3.893 2.92-6.23 7.787-8.371L31.388.426z" fill="#fff"/></svg>
